X:1
T:Title
%%score { 1 | 2 }
L:1/8
M:9/8
K:Ab
V:1 treble nm="Grand Piano"
V:2 bass 
V:1
 z3 z2[Q:1/4=100] [CE] [CE][_C=D][=CE] | [Ec]3 [Ec]2 [CA] BAF | [CE]3- [CE]2 [CE] [CE][_C=D][=CE] | %3
 B3 B2 B Bcd | c3- c2 E E=DE | c3 c2 A Ac[_Ge] | [Fd]3- [Fd]2 [Fd] [Fd][Ec]B | A3 E2 A GAB | %8
[M:5/8] [CEA]-[CEA]- [CEA]3 |[M:2/4] EE FG |[M:9/8] A3 A2 c cBA | G3- G2 E EGB | %12
 [Gd]3 [Gd]2 [Gd] [Gd][Ge][Gd] | c3- c2 c c_c=c | e3 c2 [CA] [CA][EB][EA] | %15
 [DF]3- [DF]2 [DF] [FA][EG]F | E3 A2 A GAB |[M:5/8] [CEA]-[CEA]- [CEA]3 |] %18
V:2
 z3 z2 [A,,A,] [A,,A,][A,,A,][A,,A,] | [A,,A,]3 [A,,A,]2 [A,,A,] [D,F,D][D,F,D][D,A,D] | %2
 [A,,A,]3- [A,,A,]2 [A,,A,] [A,,A,][A,,A,][A,,A,] | %3
 [E,G,E]3 [E,G,E]2 [E,G,E] [E,G,E][E,A,E][E,B,E] | [A,E]3- [A,E]2 [A,C] [A,C][A,_C][A,=C] | %5
 [A,E]3 [A,E]2 [A,CE] [A,CE][A,E][C,A,] | [D,A,]3- [D,A,]2 [D,A,] [B,,B,][C,=A,][D,F,D] | %7
 [E,C]3 [E,A,C]2 [E,CE] [E,B,E][E,B,E][E,DE] |[M:5/8] A,,-A,,- A,,3 |[M:2/4] E,E, F,G, | %10
[M:9/8] A,3 A,2 [A,E] [A,E][A,DE][A,CE] | [E,B,E]3- [E,B,E]2 E, E,G,B, | %12
 [E,B,]3 [E,B,]2 [E,B,] [E,B,][E,B,][E,B,] | [A,E]3- [A,E]2 [A,EA] [A,EA][A,=DA][A,EA] | %14
 [A,CA]3[K:bass] [A,E]2 [A,,A,] [A,,A,][B,,G,][C,A,] | %15
 [D,A,]3- [D,A,]2 [D,A,] [D,A,][D,A,][D,A,D] | [E,A,C]3 [E,CE]2 [E,CE] [E,B,E][E,CE][E,DE] | %17
[M:5/8] A,,-A,,- A,,3 |] %18

